X: 1
T: Miss Walsh
M: 6/8
L: 1/8
R: jig
K: Gmaj
|:E|DEG Bdd|cee Bdd|DEG BdB|ABA AGE|
DEG Bdd|cee Bdd|g2e dBG|AGF G2:|
|:d|~g3 ded|BAB def|gfe dBG|ABA AGE|
~g3 ded|BAB def|g2e dBG|AGF G2:|
